packages/kaspersky-hexa-ui-icons/src/iconsSVGs/16/PhoneSolid.svg

<svg width="16" height="16" viewBox="0 0 16 16" fill="none" xmlns="http://www.w3.org/2000/svg">
<path fill-rule="evenodd" clip-rule="evenodd" d="M2.02242 2.59006C2.06058 2.2656 2.33623 2.0166 2.66792 2.0166H4.55385C5.31098 2.0166 5.97095 2.53189 6.15459 3.26642L6.49365 4.62267C6.63503 5.18819 6.46753 5.78634 6.05301 6.19619L4.79406 7.44093C5.21653 8.12759 5.76034 8.8397 6.46091 9.54026C7.14764 10.227 7.86427 10.7638 8.56517 11.1834L9.80799 9.94062C10.2178 9.53079 10.8126 9.36604 11.3749 9.50661L12.7348 9.84659C13.4693 10.0302 13.9846 10.6902 13.9846 11.4473L13.9846 13.3332C13.9846 13.6749 13.7209 13.9551 13.3858 13.9812C13.1194 14.002 12.8424 13.9585 12.5788 13.9263C12.122 13.8706 11.4822 13.76 10.7345 13.5401C10.0855 13.3492 9.35324 13.0753 8.58823 12.6825C8.44986 12.6114 8.31581 12.5393 8.18053 12.4632C7.30697 11.9717 6.4032 11.321 5.54168 10.4595C4.606 9.52385 3.91676 8.56297 3.40993 7.64827C2.66669 6.30691 2.31851 5.07006 2.1563 4.16317C2.07517 3.70956 2.04037 3.33746 2.02602 3.07449C2.01722 2.91329 2.00354 2.75049 2.02242 2.59006Z" fill="black"/>
</svg>

<svg xmlns="http://www.w3.org/2000/svg" width="16" height="16" fill="none" viewBox="0 0 16 16"><path fill="#000" fill-rule="evenodd" d="M2.0224 2.5901a.65.65 0 0 1 .6455-.5734h1.886a1.65 1.65 0 0 1 1.6007 1.2498l.339 1.3562a1.65 1.65 0 0 1-.4406 1.5736L4.794 7.441c.4225.6867.9663 1.3988 1.667 2.0993a10.86 10.86 0 0 0 2.1042 1.6432L9.808 9.9407a1.65 1.65 0 0 1 1.5669-.434l1.3599.34a1.65 1.65 0 0 1 1.2498 1.6007v1.8859a.65.65 0 0 1-.5988.648c-.2664.0208-.5434-.0228-.807-.0549-.4568-.0557-1.0966-.1663-1.8443-.3862a12.3 12.3 0 0 1-2.554-1.077 12.14 12.14 0 0 1-2.6388-2.0036c-.9357-.9357-1.625-1.8966-2.1318-2.8113-.7432-1.3413-1.0914-2.5782-1.2536-3.485-.0811-.4537-.116-.8258-.1303-1.0887-.0088-.1613-.0225-.324-.0036-.4845"/></svg>
